poi/svg/2105.svg

<?xml version="1.0" encoding="UTF-8" standalone="no"?>
<svg
   xmlns:dc="http://purl.org/dc/elements/1.1/"
   xmlns:cc="http://creativecommons.org/ns#"
   xmlns:rdf="http://www.w3.org/1999/02/22-rdf-syntax-ns#"
   xmlns:svg="http://www.w3.org/2000/svg"
   xmlns="http://www.w3.org/2000/svg"
   xmlns:sodipodi="http://sodipodi.sourceforge.net/DTD/sodipodi-0.dtd"
   xmlns:inkscape="http://www.inkscape.org/namespaces/inkscape"
   inkscape:version="1.0 (4035a4fb49, 2020-05-01)"
   sodipodi:docname="2105.svg"
   id="svg20"
   version="1.2"
   viewBox="0 0 42.519639 42.519639"
   height="14.999999mm"
   width="14.999999mm">
  <metadata
     id="metadata24">
    <rdf:RDF>
      <cc:Work
         rdf:about="">
        <dc:format>image/svg+xml</dc:format>
        <dc:type
           rdf:resource="http://purl.org/dc/dcmitype/StillImage" />
        <dc:title>Qt SVG Document</dc:title>
      </cc:Work>
    </rdf:RDF>
  </metadata>
  <sodipodi:namedview
     inkscape:current-layer="svg20"
     inkscape:window-maximized="0"
     inkscape:window-y="0"
     inkscape:window-x="0"
     inkscape:cy="28.346482"
     inkscape:cx="28.346482"
     inkscape:zoom="5.8410537"
     showgrid="false"
     id="namedview22"
     inkscape:window-height="480"
     inkscape:window-width="1034"
     inkscape:pageshadow="2"
     inkscape:pageopacity="0"
     guidetolerance="10"
     gridtolerance="10"
     objecttolerance="10"
     borderopacity="1"
     bordercolor="#666666"
     pagecolor="#ffffff" />
  <title
     id="title2">Qt SVG Document</title>
  <desc
     id="desc4">Generated with Qt</desc>
  <defs
     id="defs6" />
  <g
     transform="translate(5.25984,5.25984)"
     id="g18"
     stroke-linejoin="bevel"
     stroke-linecap="square"
     fill-rule="evenodd"
     stroke-width="1"
     stroke="#000000"
     fill="none">
    <g
       id="g10"
       font-style="normal"
       font-weight="400"
       font-size="7.8px"
       font-family="'MS Shell Dlg 2'"
       stroke="none"
       fill-opacity="1"
       fill="#a61215">
      <path
         id="path8"
         d="M 37.2598,16 C 37.2598,27.7415 27.7415,37.2598 16,37.2598 4.25851,37.2598 -5.25984,27.7415 -5.25984,16 -5.25984,4.25851 4.25851,-5.25984 16,-5.25984 27.7415,-5.25984 37.2598,4.25851 37.2598,16"
         fill-rule="evenodd"
         vector-effect="non-scaling-stroke" />
    </g>
    <g
       id="g14"
       font-style="normal"
       font-weight="400"
       font-size="7.8px"
       font-family="'MS Shell Dlg 2'"
       transform="translate(16,12.0315)"
       stroke="none"
       fill-opacity="0.94902"
       fill="#ffffff">
      <path
         id="path12"
         d="M -5.76172,4.69775 C -5.81771,3.73193 -5.93669,2.89909 -6.11865,2.19922 -6.30062,1.49935 -6.52108,0.911458 -6.78003,0.435547 -7.03898,-0.0403646 -7.30493,-0.414795 -7.57788,-0.687744 -7.85083,-0.960693 -8.12028,-1.16715 -8.38623,-1.30713 -8.5262,-1.41911 -8.68717,-1.52059 -8.86914,-1.61157 c -0.18197,-0.09099 -0.39193,-0.19247 -0.62988,-0.30445 1.28776,-1.20377 2.75048,-2.1416 4.38818,-2.81347 1.6377,-0.67188 3.37337,-1.00781 5.2070314,-1.00781 1.7776686,0 3.4818486,0.33593 5.1125486,1.00781 1.6307,0.67187 3.07593,1.6097 4.33569,2.81347 -0.19596,0.11198 -0.39542,0.21346 -0.59839,0.30445 -0.20296,0.09098 -0.37443,0.19246 -0.5144,0.30444 -0.25195,0.13998 -0.5144,0.346437 -0.78735,0.619386 C 7.37134,-0.414795 7.10539,-0.0403646 6.84644,0.435547 6.58748,0.911458 6.36353,1.49935 6.17456,2.19922 5.9856,2.89909 5.86312,3.73193 5.80713,4.69775 H -5.76172 M 11.1821,-0.677246 c 0.7839,0 1.4453,0.209961 1.9842,0.6298827 0.5389,0.4199223 0.8083,0.8888343 0.8083,1.4067433 0,0.4899 -0.1925,0.91333 -0.5774,1.27026 -0.3849,0.35693 -0.8923,0.60539 -1.5222,0.74536 -0.2799,0.82585 -0.4304,1.79167 -0.4514,2.89746 -0.021,1.1058 -0.021,2.1521 0,3.13892 0.021,0.98682 -0.014,1.84062 -0.105,2.56152 -0.091,0.7209 -0.3464,1.1093 -0.7664,1.1653 H 9.77539 c -0.23796,0.3079 -0.5249,0.5109 -0.86084,0.6089 v 0.9448 H 6.5 V 13.7471 H -6.43359 v 0.9448 h -2.41455 v -0.9448 c -0.34994,-0.098 -0.63689,-0.301 -0.86084,-0.6089 h -0.77682 c -0.406,-0.056 -0.6439,-0.4444 -0.7139,-1.1653 -0.07,-0.7209 -0.098,-1.5747 -0.084,-2.56152 0.014,-0.98682 0.007,-2.03312 -0.021,-3.13892 -0.028,-1.10579 -0.196,-2.07161 -0.5039,-2.89746 -0.5739,-0.13997 -1.0708,-0.38843 -1.4907,-0.74536 -0.4199,-0.35693 -0.6299,-0.78036 -0.6299,-1.27026 0,-0.517909 0.2729,-0.986821 0.8188,-1.4067433 0.5459,-0.4199217 1.2318,-0.6298827 2.0577,-0.6298827 0.7838,0 1.4207,0.202962 1.91061,0.6088866 0.47591,0.2939454 0.91683,0.8783364 1.32275,1.7531694 0.40593,0.87484 0.60889,2.20109 0.60889,3.97876 -0.43392,0.25196 -0.78035,0.60889 -1.03931,1.07081 -0.25895,0.46191 -0.38842,0.97281 -0.38842,1.53271 0,0.86784 0.29394,1.6097 0.88183,2.22561 0.58789,0.6159 1.31576,0.9238 2.1836,0.9238 H 5.72314 c 0.83985,0 1.54322,-0.3079 2.11011,-0.9238 0.5669,-0.61591 0.85034,-1.35777 0.85034,-2.22561 0,-0.5599 -0.12597,-1.0708 -0.37793,-1.53271 C 8.05371,6.27246 7.71077,5.91553 7.27686,5.66357 7.27686,3.8859 7.48332,2.55965 7.89624,1.68481 8.30916,0.809977 8.73258,0.225586 9.1665,-0.0683594 9.7124,-0.474284 10.3843,-0.677246 11.1821,-0.677246 M 5.72314,6.0415 c 0.5739,0 1.06731,0.21346 1.48023,0.64038 0.41292,0.42693 0.61938,0.95533 0.61938,1.58521 0,0.64388 -0.20646,1.18628 -0.61938,1.6272 C 6.79045,10.3352 6.29704,10.5557 5.72314,10.5557 H -5.57275 c -0.64388,0 -1.17229,-0.2205 -1.58521,-0.66141 -0.41292,-0.44092 -0.61938,-0.98332 -0.61938,-1.6272 0,-0.62988 0.20646,-1.15828 0.61938,-1.58521 C -6.74504,6.25496 -6.21663,6.0415 -5.57275,6.0415 H 5.72314"
         fill-rule="evenodd"
         vector-effect="none" />
    </g>
    <g
       id="g16"
       font-style="normal"
       font-weight="400"
       font-size="7.8px"
       font-family="'MS Shell Dlg 2'"
       stroke="none"
       fill-opacity="1"
       fill="#a61215" />
  </g>
</svg>

<?xml version="1.0" encoding="UTF-8" standalone="no"?>
<svg width="11.2889mm" height="11.2889mm"
 viewBox="0 0 32 32"
 xmlns="http://www.w3.org/2000/svg" xmlns:xlink="http://www.w3.org/1999/xlink"  version="1.2" baseProfile="tiny">
<title>Qt SVG Document</title>
<desc>Generated with Qt</desc>
<defs>
</defs>
<g fill="none" stroke="black" stroke-width="1" fill-rule="evenodd" stroke-linecap="square" stroke-linejoin="bevel" >

<g fill="#a61215" fill-opacity="1" stroke="none" transform="matrix(1,0,0,1,0,0)"
font-family="MS Shell Dlg 2" font-size="7.8" font-weight="400" font-style="normal" 
>
<path vector-effect="non-scaling-stroke" fill-rule="evenodd" d="M37.2598,16 C37.2598,27.7415 27.7415,37.2598 16,37.2598 C4.25851,37.2598 -5.25984,27.7415 -5.25984,16 C-5.25984,4.25851 4.25851,-5.25984 16,-5.25984 C27.7415,-5.25984 37.2598,4.25851 37.2598,16 "/>
</g>

<g fill="#ffffff" fill-opacity="0.94902" stroke="none" transform="matrix(1,0,0,1,16,12.0315)"
font-family="MS Shell Dlg 2" font-size="7.8" font-weight="400" font-style="normal" 
>
<path vector-effect="none" fill-rule="evenodd" d="M-5.76172,4.69775 C-5.81771,3.73193 -5.93669,2.89909 -6.11865,2.19922 C-6.30062,1.49935 -6.52108,0.911458 -6.78003,0.435547 C-7.03898,-0.0403646 -7.30493,-0.414795 -7.57788,-0.687744 C-7.85083,-0.960693 -8.12028,-1.16715 -8.38623,-1.30713 C-8.5262,-1.41911 -8.68717,-1.52059 -8.86914,-1.61157 C-9.05111,-1.70256 -9.26107,-1.80404 -9.49902,-1.91602 C-8.21126,-3.11979 -6.74854,-4.05762 -5.11084,-4.72949 C-3.47314,-5.40137 -1.73747,-5.7373 0.0961914,-5.7373 C1.87386,-5.7373 3.57804,-5.40137 5.20874,-4.72949 C6.83944,-4.05762 8.28467,-3.11979 9.54443,-1.91602 C9.34847,-1.80404 9.14901,-1.70256 8.94604,-1.61157 C8.74308,-1.52059 8.57161,-1.41911 8.43164,-1.30713 C8.17969,-1.16715 7.91724,-0.960693 7.64429,-0.687744 C7.37134,-0.414795 7.10539,-0.0403646 6.84644,0.435547 C6.58748,0.911458 6.36353,1.49935 6.17456,2.19922 C5.9856,2.89909 5.86312,3.73193 5.80713,4.69775 L-5.76172,4.69775 M11.1821,-0.677246 C11.966,-0.677246 12.6274,-0.467285 13.1663,-0.0473633 C13.7052,0.372559 13.9746,0.841471 13.9746,1.35938 C13.9746,1.84928 13.7821,2.27271 13.3972,2.62964 C13.0123,2.98657 12.5049,3.23503 11.875,3.375 C11.5951,4.20085 11.4446,5.16667 11.4236,6.27246 C11.4026,7.37826 11.4026,8.42456 11.4236,9.41138 C11.4446,10.3982 11.4096,11.252 11.3186,11.9729 C11.2276,12.6938 10.9722,13.0822 10.5522,13.1382 L9.77539,13.1382 C9.53743,13.4461 9.25049,13.6491 8.91455,13.7471 L8.91455,14.6919 L6.5,14.6919 L6.5,13.7471 L-6.43359,13.7471 L-6.43359,14.6919 L-8.84814,14.6919 L-8.84814,13.7471 C-9.19808,13.6491 -9.48503,13.4461 -9.70898,13.1382 L-10.4858,13.1382 C-10.8918,13.0822 -11.1297,12.6938 -11.1997,11.9729 C-11.2697,11.252 -11.2977,10.3982 -11.2837,9.41138 C-11.2697,8.42456 -11.2767,7.37826 -11.3047,6.27246 C-11.3327,5.16667 -11.5007,4.20085 -11.8086,3.375 C-12.3825,3.23503 -12.8794,2.98657 -13.2993,2.62964 C-13.7192,2.27271 -13.9292,1.84928 -13.9292,1.35938 C-13.9292,0.841471 -13.6563,0.372559 -13.1104,-0.0473633 C-12.5645,-0.467285 -11.8786,-0.677246 -11.0527,-0.677246 C-10.2689,-0.677246 -9.632,-0.474284 -9.14209,-0.0683594 C-8.66618,0.225586 -8.22526,0.809977 -7.81934,1.68481 C-7.41341,2.55965 -7.21045,3.8859 -7.21045,5.66357 C-7.64437,5.91553 -7.9908,6.27246 -8.24976,6.73438 C-8.50871,7.19629 -8.63818,7.70719 -8.63818,8.26709 C-8.63818,9.13493 -8.34424,9.87679 -7.75635,10.4927 C-7.16846,11.1086 -6.44059,11.4165 -5.57275,11.4165 L5.72314,11.4165 C6.56299,11.4165 7.26636,11.1086 7.83325,10.4927 C8.40015,9.87679 8.68359,9.13493 8.68359,8.26709 C8.68359,7.70719 8.55762,7.19629 8.30566,6.73438 C8.05371,6.27246 7.71077,5.91553 7.27686,5.66357 C7.27686,3.8859 7.48332,2.55965 7.89624,1.68481 C8.30916,0.809977 8.73258,0.225586 9.1665,-0.0683594 C9.7124,-0.474284 10.3843,-0.677246 11.1821,-0.677246 M5.72314,6.0415 C6.29704,6.0415 6.79045,6.25496 7.20337,6.68188 C7.61629,7.10881 7.82275,7.63721 7.82275,8.26709 C7.82275,8.91097 7.61629,9.45337 7.20337,9.89429 C6.79045,10.3352 6.29704,10.5557 5.72314,10.5557 L-5.57275,10.5557 C-6.21663,10.5557 -6.74504,10.3352 -7.15796,9.89429 C-7.57088,9.45337 -7.77734,8.91097 -7.77734,8.26709 C-7.77734,7.63721 -7.57088,7.10881 -7.15796,6.68188 C-6.74504,6.25496 -6.21663,6.0415 -5.57275,6.0415 L5.72314,6.0415"/>
</g>

<g fill="#a61215" fill-opacity="1" stroke="none" transform="matrix(1,0,0,1,0,0)"
font-family="MS Shell Dlg 2" font-size="7.8" font-weight="400" font-style="normal" 
>
</g>
</g>
</svg>
